!!!COA:	Josquin des Prez
!!!CDT:	~1450-1521/08/27
!!!OTL@@FRE:	Pour souhaitter
!!!AGN:	Chanson
!!!SCT:	NJE 30.8
!!!SCA:	New Josquin Edition 30.8
!!!voices:	6
**kern	**kern	**kern	**kern	**kern	**kern
*staff6	*staff5	*staff4	*staff3	*staff2	*staff1
*Ivox	*Ivox	*Ivox	*Ivox	*Ivox	*Ivox
*I"Bassus	*I"Tenor	*I"Quintus	*I"Contratenor	*I"Sextus	*I"Superius
*I'B	*I'T	*I'Q	*I'Ct	*I'Sx	*I'S
*clefF4	*clefGv2	*clefGv2	*clefGv2	*clefGv2	*clefG2
*k[]	*k[]	*k[]	*k[]	*k[]	*k[]
*M2/1	*M2/1	*M2/1	*M2/1	*M2/1	*M2/1
*met(C|)	*met(C|)	*met(C|)	*met(C|)	*met(C|)	*met(C|)
=1-	=1-	=1-	=1-	=1-	=1-
!	!LO:TX:Z=10:t=Canon at the upper fifth	!	!	!	!
0r	0r	1r	0r	0r	1d
.	.	1A	.	.	1f
=2	=2	=2	=2	=2	=2
0r	0r	1c	0r	0r	1e
.	.	1B	.	.	1d
=3	=3	=3	=3	=3	=3
1D	0r	1A	4D/	0r	2r
.	.	.	4E/	.	.
.	.	.	4F/	.	2a/
.	.	.	4G/	.	.
1F	.	1r	4A/	.	2a/
.	.	.	4G/	.	.
.	.	.	4A/	.	2a/
.	.	.	4B\	.	.
=4	=4	=4	=4	=4	=4
1E	0r	0r	4c\	0r	2.g/
.	.	.	4d\	.	.
.	.	.	4e\	.	.
.	.	.	4c\	.	4e/
1D	.	.	1d	.	4f/
.	.	.	.	.	4g/
.	.	.	.	.	[2a/
=5	=5	=5	=5	=5	=5
2r	1D	4D/	2r	0r	4a/]
.	.	4E/	.	.	4g/
2D\	.	4F/	2A/	.	4f/
.	.	4G/	.	.	4e/
2D\	1F	4A/	2A/	.	4d/
.	.	4G/	.	.	4e/
2D\	.	4A/	2F/	.	4f/
.	.	4B\	.	.	4d/
=6	=6	=6	=6	=6	=6
1C	1E	4c\	1G	0r	1e
.	.	4d\	.	.	.
.	.	4e\	.	.	.
.	.	4c\	.	.	.
1BB	1D	1d	1G	.	1r
=7	=7	=7	=7	=7	=7
0AA	2r	2r	0A	1A	4A/
.	.	.	.	.	4B/
.	2A/	2e\	.	.	4c/
.	.	.	.	.	4d/
.	2A/	2e\	.	1c	4e/
.	.	.	.	.	4d/
.	2A/	2c\	.	.	4e/
.	.	.	.	.	4f/
=8	=8	=8	=8	=8	=8
0r	1G	1d	1r	1B	4g/
.	.	.	.	.	4a/
.	.	.	.	.	4b\
.	.	.	.	.	4g/
.	1F	1d	1D	1A	1a
=9	=9	=9	=9	=9	=9
2r	0E	0e	1.G	2r	2r
2C/	.	.	.	2e\	2g/
2C/	.	.	.	2e\	2cc\
2C/	.	.	2G/	2e\	2cc\
=10	=10	=10	=10	=10	=10
1GG	0r	1r	1G	1d	1b
1AA	.	2r	2.C/	1c	1a
.	.	2e\	.	.	.
.	.	.	4D/	.	.
=11	=11	=11	=11	=11	=11
1EE	1G	2e\	0E	0B	0g
.	.	1e	.	.	.
2r	1G	.	.	.	.
2E\	.	4d\	.	.	.
.	.	4c\	.	.	.
=12	=12	=12	=12	=12	=12
1E	1G	1B	2r	0r	1r
.	.	.	2B\	.	.
1AA	1A	[1A	2c\	.	2r
.	.	.	2c\	.	2e/
=13	=13	=13	=13	=13	=13
1D	2r	1A]	2d\	1d	2f/
.	2D/	.	2A/	.	2f/
2r	2G/	2.G/	2B\	1d	1g
2GG/	2G/	.	2B\	.	.
.	.	4F/	.	.	.
=14	=14	=14	=14	=14	=14
2D\	2F/	1D	2A/	1d	2r
2GG/	2G/	.	2.d\	.	2g/
3.C/V	1E	2r	.	1e	2g/
.	.	.	4c\	.	.
6D\	.	2G/	4c\	.	2g/
3E\Z	.	.	.	.	.
.	.	.	4B\	.	.
=15	=15	=15	=15	=15	=15
2F\	0D	2A/	1d	2r	4f/
.	.	.	.	.	4e/
1D	.	2A/	.	2A/	4f/
.	.	.	.	.	4g/
.	.	2.F/	1r	2d\	4a/
.	.	.	.	.	4g/
4C/	.	.	.	2d\	4a/
4BB/	.	4G/	.	.	4b\
=16	=16	=16	=16	=16	=16
2AA/	2r	2A/	2r	2c\	2cc\
2D\	2D/	2D/	2d\	2d\	2.a/
1GG	2G/	1r	2d\	1B	.
.	.	.	.	.	4g/
.	2G/	.	2d\	.	4g/
.	.	.	.	.	4f/
=17	=17	=17	=17	=17	=17
1D	1F	2r	3.f\V	0A	1a
.	.	2A/	6e\	.	.
.	.	.	3d\Z	.	.
1AA	1E	2A/	3c#i\V	.	2r
.	.	.	3d\	.	.
.	.	2A/	.	.	2e/
.	.	.	3c#i\Z	.	.
=18	=18	=18	=18	=18	=18
2r	0D	2.F/	1d	2r	4f/
.	.	.	.	.	4e/
2D\	.	.	.	2A/	4f/
.	.	4G/	.	.	4g/
2D\	.	2A/	1f	2d\	4a/
.	.	.	.	.	4g/
2D\	.	2D/	.	2d\	4a/
.	.	.	.	.	4b\
=19	=19	=19	=19	=19	=19
1AA	0r	1E	0e	1c	2cc\
.	.	.	.	.	2.a/
1E	.	1r	.	1B	.
.	.	.	.	.	4g#i/
.	.	.	.	.	4g#i/
.	.	.	.	.	4f#i/
=20	=20	=20	=20	=20	=20
0AA	1A	2r	2.c\	0A	1a
.	.	2A/	.	.	.
.	.	.	4d\	.	.
.	1c	2A/	1e	.	2r
.	.	2A/	.	.	2e/
=21	=21	=21	=21	=21	=21
2r	1B	1G	1r	0r	1g
2E\	.	.	.	.	.
2F\	1A	2r	2r	.	1f
2D\	.	2A/	2A/	.	.
=22	=22	=22	=22	=22	=22
1AA	0r	2A/	1c	1e	1e
.	.	2A/	.	.	.
2r	.	1G	1B	1g	1r
2E\	.	.	.	.	.
=23	=23	=23	=23	=23	=23
2F\	2r	2r	1A	1f	2r
2D\	2A/	2A/	.	.	2a/
1AA	2A/	2c\	1r	1e	2a/
.	2E/	2c\	.	.	2a/
=24	=24	=24	=24	=24	=24
0r	2G/	2B\	0r	0r	2b\
.	2A/	1e	.	.	1cc
.	1F	.	.	.	.
.	.	2d\	.	.	4b\
.	.	.	.	.	4a/
=25	=25	=25	=25	=25	=25
2r	0E	0e	2r	2r	2g/
2E\	.	.	2G/	2e\	4e/
.	.	.	.	.	4f/
2E\	.	.	2G/	2e\	4g/
.	.	.	.	.	4a/
2E\	.	.	2E/	2B\	4b\
.	.	.	.	.	4g/
=26	=26	=26	=26	=26	=26
2D\	0r	1r	2F/	2d\	2a/
2C/	.	.	2G/	2e\	1cc
1AA	.	2r	1A	1c	.
.	.	2e\	.	.	4b\
.	.	.	.	.	4a/
=27	=27	=27	=27	=27	=27
1E	1G	2e\	0E	0B	0g
.	.	1e	.	.	.
2r	1G	.	.	.	.
2E\	.	4d\	.	.	.
.	.	4c\	.	.	.
=28	=28	=28	=28	=28	=28
1E	1G	1B	2r	0r	1r
.	.	.	2B\	.	.
1AA	1A	[1A	2c\	.	2r
.	.	.	2c\	.	2e/
=29	=29	=29	=29	=29	=29
1D	2r	1A]	2d\	1d	2f/
.	2D/	.	2A/	.	2f/
2r	2G/	2.G/	2B\	1d	1g
2GG/	2G/	.	2B\	.	.
.	.	4F/	.	.	.
=30	=30	=30	=30	=30	=30
2D\	2F/	1D	2A/	1d	2r
2GG/	2G/	.	1d	.	2g/
3.C/V	1E	2r	.	1e	2g/
6D\	.	2G/	2c\	.	2g/
3E\Z	.	.	.	.	.
=31	=31	=31	=31	=31	=31
2F\	1D	2A/	0d	2r	1f
1D	.	2A/	.	2A/	.
.	2r	2F/	.	2d\	2r
4C/	2D/	[2A/	.	2d\	2d/
4BB/	.	.	.	.	.
=32	=32	=32	=32	=32	=32
2AA/	1A	4A/]	1r	2c\	2e/
.	.	4G/	.	.	.
2D\	.	2F/	.	2d\	2f/
4E\	1G	1E	2r	1B	1g
4F\	.	.	.	.	.
4G\	.	.	2G/	.	.
4E\	.	.	.	.	.
=33	=33	=33	=33	=33	=33
2F\	2A/	1r	2c\	1A	2r
2D\	2F/	.	2d\	.	2a/
1AA	2E/	2r	1e	2r	2.cc\
.	[2A/	2c\	.	2A/	.
.	.	.	.	.	4b\
=34	=34	=34	=34	=34	=34
0r	4A/]	2c\	1r	1e	2a/
.	4G/	.	.	.	.
.	2E/	2B\	.	.	2g#i/
.	1F	2.A/	2r	1d	1a
.	.	.	2A/	.	.
.	.	4F/	.	.	.
=35	=35	=35	=35	=35	=35
2r	0E	2G/	2B\	2e\	2r
2AA/	.	2A/	2c\	2c\	2a/
2E\	.	1E	2G/	2B\	2b\
2AA/	.	.	2A/	[2e\	[2cc\
=36	=36	=36	=36	=36	=36
1E	0r	1r	0E	4e\]	4cc\]
.	.	.	.	4d\	4b\
.	.	.	.	2B\	2g/
1AA	.	2r	.	1c	1a
.	.	2e\	.	.	.
=37	=37	=37	=37	=37	=37
1E	1G	2e\	0r	0B	0g
.	.	1e	.	.	.
2r	1G	.	.	.	.
2E\	.	4d\	.	.	.
.	.	4c\	.	.	.
=38	=38	=38	=38	=38	=38
1E	1G	1B	2r	0r	1r
.	.	.	2B\	.	.
1AA	1A	[1A	2c\	.	2r
.	.	.	2c\	.	2e/
=39	=39	=39	=39	=39	=39
1D	2r	1A]	2d\	1d	2f/
.	2D/	.	2A/	.	2f/
2r	2G/	2.G/	1B	1d	1g
2GG/	2G/	.	.	.	.
.	.	4F/	.	.	.
=40	=40	=40	=40	=40	=40
2D\	2F/	1D	2A/	1d	2r
2GG/	2G/	.	1d	.	2g/
3.C/V	1E	2r	.	1e	2g/
6D\	.	2G/	2c\	.	2g/
3E\Z	.	.	.	.	.
=41	=41	=41	=41	=41	=41
2F\	0D	2.F/	2.d\	2r	4f/
.	.	.	.	.	4e/
1D	.	.	.	2A/	4f/
.	.	4G/	4e\	.	4g/
.	.	[1A	2f\	2d\	4a/
.	.	.	.	.	4g/
4C/	.	.	2d\	2d\	4a/
4BB/	.	.	.	.	4b\
=42	=42	=42	=42	=42	=42
2AA/	0r	2A/]	2e\	2c\	2cc\
2D\	.	2F/	2f\	2d\	2.a/
1GG	.	1G	1d	1B	.
.	.	.	.	.	4g/
.	.	.	.	.	4g/
.	.	.	.	.	4f/
=43	=43	=43	=43	=43	=43
1DD	2r	2r	2r	[0A	2a/
.	2D/	2F/	2d\	.	2f/
2AA/	2C/	2c\	2e\	.	2e/
2DD/	2D/	2F/	[2f\	.	[2a/
=44	=44	=44	=44	=44	=44
1AA	1C	1c	4f\]	0A]	4a/]
.	.	.	4e\	.	4g/
.	.	.	2e\	.	2e/
1DD	1D	2.F/	1d	.	1f
.	.	4G/	.	.	.
=45	=45	=45	=45	=45	=45
0AAl	0AAl	0Al	0cl	0Al	0el
==	==	==	==	==	==
*-	*-	*-	*-	*-	*-
!!!RDF**kern: l=long note in original notation
!!!RDF**kern: i=editorial accidental
!!!ENC:	Will Watson 07/09/2011
!!!END:	2011/09/07/
!!!EED:	Jesse Rodin
!!!EEV:	2011/12/01/
!!attribution-level@Jos: 4 (questionable)
!!!ONB:	Translated from MusicXML and edited on 2011/12/01/ by Craig Sapp
!!muse2ps: C^@{COA}?\n@{SCT}^i2I150v95,95,95,95,95,130Q16
